icons/linear-ele-symbol-refresh-left.svg

<svg xmlns="http://www.w3.org/2000/svg" width="32px" height="32px" viewBox="0 0 32 32" version="1.1">
    <title>linear-ele-symbol-refresh-left</title>
    <g id="linear-ele-symbol-refresh-left" stroke-width="1" fill-rule="evenodd">
        <path d="M16,4 C22.627417,4 28,9.372583 28,16 C28,22.627417 22.627417,28 16,28 C9.372583,28 4,22.627417 4,16 C4,15.4477153 4.44771525,15 5,15 C5.55228475,15 6,15.4477153 6,16 C6,21.5228475 10.4771525,26 16,26 C21.5228475,26 26,21.5228475 26,16 C26,10.4771525 21.5228475,6 16,6 C13.5135034,6 11.1805784,6.91316691 9.38392387,8.50022461 L11.5,8.5 C12.0128358,8.5 12.4355072,8.88604019 12.4932723,9.38337887 L12.5,9.5 C12.5,10.0522847 12.0522847,10.5 11.5,10.5 L7.28195525,10.5021928 C7.16221793,10.5227306 7.03882391,10.5215735 6.91818433,10.4977244 L7,10.5 C6.44771525,10.5 6,10.0522847 6,9.5 L6,5 C6,4.44771525 6.44771525,4 7,4 C7.55228475,4 8,4.44771525 8,5 L7.99969269,7.05478655 C10.1634822,5.11748271 12.9889652,4 16,4 Z" id="&#36335;&#24452;" fill-rule="nonzero" />
    </g>
</svg>

<svg xmlns="http://www.w3.org/2000/svg" viewBox="0 0 32 32"><path fill="currentColor" d="M16 4c6.627 0 12 5.373 12 12s-5.373 12-12 12S4 22.627 4 16a1 1 0 0 1 2 0c0 5.523 4.477 10 10 10s10-4.477 10-10S21.523 6 16 6a9.97 9.97 0 0 0-6.616 2.5H11.5a1 1 0 0 1 .993.883l.007.117a1 1 0 0 1-1 1l-4.218.002c-.12.02-.243.02-.364-.004L7 10.5a1 1 0 0 1-1-1V5a1 1 0 1 1 2 0v2.055A11.97 11.97 0 0 1 16 4"/></svg>
